src/16/mimetypes/application-x-kexiproject-shortcut.svg

<svg width="16" xmlns="http://www.w3.org/2000/svg" height="16"><path fill="#8e44ad" d="M8 2a6 2 0 0 0-6 2v4a6 2 0 0 0 5 1.97V12H5v-1H2v3h3v-1h6v1h3v-3h-3v1H9V9.971A6 2 0 0 0 14 8h-1a5 1 0 0 1-5 1 5 1 0 0 1-5-1V5.102A6 2 0 0 0 8 6V5a5 1 0 0 1-5-1 5 1 0 0 1 5-1zm1 0v3h1V4h.5c.831 0 1.5.669 1.5 1.5S11.331 7 10.5 7H9v1h1.5C11.885 8 13 6.885 13 5.5S11.885 3 10.5 3H12V2zM3 12h1v1H3zm9 0h1v1h-1z"/></svg>

<svg width="16" xmlns="http://www.w3.org/2000/svg" height="16" viewBox="0 0 16 16">
 <path fill="#8e44ad" d="M8 2A6 2 0 0 0 2 4V8A6 2 0 0 0 7 9.970703V12H5V11H2V14H5V13H11V14H14V11H11V12H9V9.971A6 2 0 0 0 14 8H13A5 1 0 0 1 8 9 5 1 0 0 1 3 8V5.102A6 2 0 0 0 8 6V5A5 1 0 0 1 3 4 5 1 0 0 1 8 3zM9 2V5H10V4H10.5C11.331 4 12 4.669 12 5.5 12 6.331 11.331 7 10.5 7H9V8H10.5C11.885 8 13 6.885 13 5.5 13 4.115 11.885 3 10.5 3H12V2zM3 12H4V13H3zM12 12H13V13H12z"/>
</svg>
